X: 8
T: The Sligo Maid
R: reel
M: 4/4
L: 1/8
K: Edor
|: E2FE (3F^GA Bc | dBAF edBc | d2fd Adfd | ABde fe e2 |
E2FE (3F^GA Bc | dBAF edBd | f3d e2 dB | ABde fe e2:|
|: Beed e2de | fdec dcBA | Bddc d2dB | ABde fded |
Beed e2de | fdec dcBA | Bd (3dcd BAFB | AFdF FEE2 :|


Tune 399	Setting 29714

